X:1
T:Title
%%score ( 1 2 ) ( 3 4 )
L:1/8
Q:1/4=100
M:4/4
K:Eb
V:1 treble nm="Choir Aahs, Staff"
V:2 treble 
V:3 bass nm="Choir Aahs, Staff-1"
V:4 bass 
V:1
 B2 z2 z4 | [GB]2 [Ec]2 [Fd]2 [Ge]2 | [Ee]2 [Fd]2 [Ac]2 [FB]2 | [EA]2 [EG]2 [DF]2 [B,E]2 | %4
w: By~Louis~Bourgeois||||
 [B,E]2 [DF]2 [EG]2 [EA]2 | [FB]2 [EB]2 [CA]2 [DB]2 | [FB]2 [Ac]2 [Fd]2 [Ee]2 | %7
w: |||
 [Ge]2 [Gd]2 c-[Fc] [GB]2 | [DB]2 [FA]2 GF [Ec]2 | [GB]2 [FA]2 [=EG]2 [CF]2 | z4 A2 z2 | %11
w: ||||
 [Ec]2 [EB]2 [EA]2 [DB]2 |] %12
w: |
V:2
 GF [Ee]2 [Fe]2 [Fd]2 | x8 | x8 | x8 | x8 | x8 | x8 | z4 .A2 z2 | x8 | x8 | [DF]2 [EG]2 ED [EB]2 | %11
 x8 |] %12
V:3
 B,A, [E,G,]2 [C,=A,]2 [B,,B,]2 | [E,B,]2 A,2 [F,A,]2 [E,B,]2 | [G,,B,]2 [B,,B,]2 [C,E]2 [D,B,]2 | %3
 [C,C]2 [B,,G,]2 B,A, [E,G,]2 | [G,B,]2 [F,A,]2 [E,B,]2 [C,C]2 | [D,B,]2 [E,G,]2 F,2 [B,,F,]2 | %6
 [B,D]2 [A,E]2 [A,B,]2 [G,B,]2 | [C,C]2 [D,B,]2 =A,D [G,,D]2 | [G,B,]2 CD E_D [A,,C]2 | %9
 [B,,_D]2 [C,C]2 CB, [F,A,]2 | B,A, [G,B,]2 [F,A,]2 [E,G,]2 | [A,,A,]2 [B,,G,]2 [C,E,]2 [B,,F,]2 |] %12
V:4
 E,2 z2 z4 | x8 | x8 | z4 B,,2 z2 | x8 | x8 | x8 | z4 D,2 z2 | z2 F,2 E,2 z2 | z4 C,2 z2 | x8 | %11
 x8 |] %12

